X: 7
T: The Flooded Road To Glenties
R: reel
M: 4/4
L: 1/8
K: Amin
|:G|EA A2 cedB|cedB AGED|EA A2 egge|fedf e3d|
eged cedB|A3G cdef|ge e2 edcB|cedB A3:|
|:B|cA A2 gAfA|eA A2 BAGB|cA A2 gage|fedf e3d|
eged cedB|A3G cdef|ge e2 edcB|cedB A3:|


Tune 3440	Setting 16484

